ui/public/imgs/providers/cpanel.svg

<svg xmlns="http://www.w3.org/2000/svg" width="200" height="200" viewBox="0 0 190 40" fill="none"><g clip-path="url(#clip0_7795_1449)"><mask style="mask-type:luminance" maskUnits="userSpaceOnUse" x="0" y="0" width="190" height="40"><path d="M190 0H0V39.963H190V0Z" fill="white"></path></mask><g mask="url(#mask0_7795_1449)"><mask style="mask-type:luminance" maskUnits="userSpaceOnUse" x="0" y="0" width="190" height="40"><path d="M190 0H0V39.963H190V0Z" fill="white"></path></mask><g mask="url(#mask1_7795_1449)"><path d="M14.9604 9.8764H26.2619L24.5185 16.5678C24.2835 17.469 23.7519 18.2591 23.01 18.8147C22.2804 19.3826 21.3901 19.6789 20.4628 19.6665H15.2077C14.0577 19.6542 12.9449 20.0245 12.0299 20.7159C11.1025 21.4443 10.4224 22.432 10.1009 23.5678C9.866 24.3949 9.84127 25.2715 10.0267 26.111C10.1999 26.8764 10.5337 27.6048 11.0036 28.2344C11.4858 28.827 12.1041 29.3085 12.8089 29.6295C13.5508 29.9875 14.3792 30.185 15.2077 30.1727H18.4102C18.9913 30.1727 19.5354 30.432 19.8816 30.9011C20.2526 31.3455 20.3886 31.9628 20.2155 32.5184L18.2123 39.9258H14.7131C12.4008 39.9505 10.1257 39.4073 8.07308 38.3579C6.11941 37.3455 4.40068 35.9258 3.0529 34.185C0.283152 30.5678 -0.66895 25.8887 0.493356 21.4813L0.703561 20.7282C1.12397 19.148 1.80404 17.6542 2.71905 16.3085C3.60933 14.9999 4.70981 13.827 5.97103 12.8641C7.23226 11.9134 8.65423 11.1603 10.1504 10.6418C11.696 10.1233 13.3282 9.86405 14.9604 9.8764Z" fill="#FF6C2C"></path><path d="M20.6641 39.9628L30.556 3.09859C30.8033 2.20971 31.3227 1.41958 32.0646 0.851681C32.7941 0.28378 33.6967 -0.0125166 34.6241 -0.000170901H45.0849C47.3847 -0.0248623 49.6723 0.518348 51.7125 1.58008C53.6661 2.58008 55.3849 3.99983 56.7327 5.74057C58.0681 7.49366 59.0078 9.51835 59.49 11.6665C59.9723 13.9381 59.8857 16.2838 59.2427 18.5183L59.0449 19.2714C58.6121 20.8393 57.9321 22.3332 57.0418 23.6912C56.1639 25.0122 55.0758 26.185 53.8145 27.1603C52.5533 28.1233 51.1437 28.8887 49.6352 29.4072C48.0895 29.9381 46.4574 30.2097 44.8252 30.2097H35.774L37.5793 23.4566C37.8266 22.5677 38.346 21.79 39.0755 21.2344C39.805 20.6665 40.6953 20.3702 41.6227 20.3825H44.5161C46.9272 20.3825 49.0293 18.7529 49.6228 16.4319C49.8577 15.6295 49.8825 14.7776 49.697 13.9628C49.5239 13.1974 49.19 12.469 48.7202 11.8393C48.2627 11.2344 47.6691 10.7282 46.9891 10.3702C46.2224 9.97514 45.3816 9.77761 44.5161 9.78995H38.9271L31.6194 36.9504C31.3721 37.827 30.8528 38.5924 30.1233 39.148C29.4185 39.7035 28.5529 39.9998 27.6503 39.9998L20.6641 39.9628Z" fill="#FF6C2C"></path><path d="M83.0517 20.2834L83.2001 19.7279C83.2743 19.4933 83.2248 19.2464 83.0765 19.0612C82.9281 18.876 82.6931 18.7649 82.4458 18.7773H66.1859C65.5306 18.7773 64.8752 18.6291 64.2817 18.3328C63.7377 18.0489 63.2554 17.6538 62.8845 17.16C62.5135 16.6662 62.2539 16.0859 62.1302 15.481C61.9942 14.839 61.9942 14.1847 62.1302 13.5427L63.1318 9.74023H85.1538C86.4397 9.74023 87.7257 10.0365 88.8633 10.6415C89.9637 11.2094 90.9282 12.0118 91.6948 12.9871C92.4491 13.9625 92.9684 15.0983 93.2405 16.3081C93.5248 17.5921 93.5001 18.9131 93.1663 20.1847L89.2218 34.8637C88.4305 37.8637 85.7102 39.9378 82.6066 39.9131H66.3467C64.9741 39.9254 63.6264 39.6044 62.4022 38.9871C61.2399 38.3946 60.226 37.555 59.447 36.518C58.668 35.481 58.124 34.2834 57.8396 33.0242C57.5428 31.6909 57.5799 30.3081 57.9385 28.9995L58.1487 28.2464C58.396 27.3081 58.8164 26.4316 59.3852 25.6538C59.9169 24.876 60.5599 24.1847 61.3141 23.6044C62.835 22.4316 64.7021 21.802 66.6187 21.802H80.2201L79.2186 25.5057C78.9713 26.3822 78.4396 27.1476 77.7224 27.7032C77.0176 28.2588 76.1521 28.555 75.2494 28.555H69.2401C68.7084 28.518 68.2385 28.876 68.1396 29.3946C68.0283 29.7279 68.1025 30.0983 68.3374 30.3699C68.5353 30.6662 68.8815 30.8513 69.2401 30.8637H79.132C79.4782 30.8637 79.8121 30.7649 80.0841 30.5674C80.3438 30.3822 80.5293 30.0983 80.5787 29.7773L80.6777 29.3699L83.0517 20.2834Z" fill="#FF6C2C"></path><path d="M112.177 9.87625C114.501 9.85156 116.789 10.3948 118.854 11.4565C122.848 13.4688 125.704 17.1849 126.607 21.5676C127.089 23.8269 127.015 26.1849 126.384 28.4071L123.911 37.8022C123.75 38.4442 123.367 39.0121 122.835 39.4071C122.304 39.7898 121.661 39.9997 121.005 39.9997H115.602C115.008 40.0244 114.44 39.7528 114.093 39.2713C113.735 38.8145 113.624 38.2096 113.797 37.654L116.801 26.3084C117.036 25.5059 117.061 24.654 116.876 23.8392C116.702 23.0738 116.369 22.3454 115.899 21.7158C115.416 21.0861 114.798 20.58 114.093 20.2219C113.352 19.8392 112.535 19.6417 111.695 19.6417H106.093L101.246 37.7775C101.085 38.4195 100.702 38.9874 100.17 39.3824C99.6264 39.7775 98.9587 39.9874 98.291 39.975H92.937C92.3558 39.9874 91.7994 39.7158 91.4532 39.2466C91.0822 38.7898 90.9586 38.1849 91.1317 37.6293L98.5507 9.85156L112.177 9.87625Z" fill="#FF6C2C"></path><path d="M141.64 19.3574C141.245 19.6784 140.948 20.1105 140.787 20.592L138.487 29.0734C138.376 29.5055 138.463 29.9623 138.735 30.308C139.019 30.7031 139.476 30.9376 139.971 30.9129H160.744L159.137 36.8512C158.889 37.7278 158.358 38.4932 157.641 39.0487C156.936 39.6043 156.07 39.9006 155.168 39.9006H136.237C134.951 39.9006 133.677 39.6043 132.527 39.0241C131.427 38.4685 130.462 37.666 129.708 36.6784C128.954 35.6907 128.422 34.5426 128.15 33.3327C127.878 32.0611 127.928 30.7524 128.286 29.5055L131.328 18.1722C131.983 15.7771 133.405 13.6537 135.359 12.1228C136.311 11.4191 137.362 10.8512 138.487 10.4685C139.674 10.0487 140.936 9.83887 142.197 9.83887H155.551C156.849 9.83887 158.123 10.1352 159.26 10.7401C160.361 11.308 161.325 12.1105 162.092 13.0858C162.859 14.0734 163.378 15.2092 163.613 16.4315C163.885 17.7031 163.848 19.0241 163.514 20.2833L162.611 23.6784C162.24 25.1352 161.362 26.4191 160.138 27.2957C158.951 28.2092 157.505 28.6907 156.008 28.6784H140.96L141.962 24.9747C142.184 24.0981 142.704 23.3204 143.433 22.7771C144.163 22.2092 145.053 21.9129 145.98 21.9253H152.089C152.608 21.95 153.078 21.6043 153.189 21.0858L153.387 20.3327C153.486 19.987 153.412 19.6166 153.189 19.3327C152.979 19.0487 152.645 18.8883 152.287 18.8883H142.976C142.481 18.8883 142.011 19.0487 141.628 19.3574" fill="#FF6C2C"></path><path d="M160.656 39.9625L170.709 2.24642C170.857 1.5921 171.241 1.0242 171.785 0.629141C172.316 0.209388 172.984 -0.0128342 173.664 -0.000488556H179.018C179.612 -0.0128342 180.181 0.258771 180.539 0.727906C180.922 1.17235 181.034 1.78963 180.861 2.34519L173.355 30.1723C173.009 31.6044 172.415 32.9625 171.587 34.1723C170.796 35.3452 169.806 36.3822 168.681 37.2464C167.556 38.0983 166.307 38.7649 164.972 39.2341C163.599 39.7279 162.14 39.9748 160.681 39.9625" fill="#FF6C2C"></path><path d="M190 4.54299C190.025 6.67879 188.294 8.43188 186.155 8.45657C186.118 8.45657 186.081 8.45657 186.043 8.45657C183.892 8.45657 182.148 6.71583 182.148 4.56768C182.148 2.41953 183.892 0.678789 186.043 0.678789C188.183 0.629406 189.951 2.32076 190 4.45657C190 4.48126 190 4.5183 190 4.54299ZM183.039 4.54299C182.989 6.19731 184.3 7.58002 185.957 7.62941C185.994 7.62941 186.019 7.62941 186.056 7.62941C187.7 7.62941 189.023 6.29607 189.011 4.6541C189.011 4.62941 189.011 4.59237 189.011 4.56768C189.122 2.9257 187.861 1.50595 186.217 1.39484C184.572 1.28373 183.15 2.54299 183.039 4.18496C183.039 4.30842 183.039 4.44422 183.039 4.56768M185.475 6.56768H184.572V2.70348C185.067 2.61706 185.561 2.58002 186.068 2.59237C186.526 2.55533 186.996 2.6541 187.404 2.86397C187.651 3.07385 187.799 3.38249 187.787 3.71583C187.75 4.16027 187.428 4.53064 186.983 4.61706C187.379 4.76521 187.651 5.13558 187.688 5.55533C187.737 5.88867 187.824 6.20965 187.972 6.5183H187.008C186.859 6.222 186.761 5.90101 186.699 5.58002C186.625 5.16027 186.39 4.96274 185.895 4.96274H185.475V6.56768ZM185.475 4.38249H185.895C186.39 4.38249 186.798 4.20965 186.798 3.81459C186.798 3.41953 186.538 3.222 185.969 3.222C185.808 3.19731 185.635 3.19731 185.475 3.222V4.38249Z" fill="#FF6C2C"></path></g></g></g><defs><clipPath><rect width="190" height="40" fill="white"></rect></clipPath></defs></svg>

<svg xmlns="http://www.w3.org/2000/svg" width="200" height="200" fill="none" viewBox="0 0 190 40"><g fill="#ff6c2c" mask="url(#mask1_7795_1449)"><path d="M14.96 9.876h11.302l-1.744 6.692a4.1 4.1 0 0 1-1.508 2.247c-.73.568-1.62.864-2.547.851h-5.255a5.17 5.17 0 0 0-3.178 1.05 5.55 5.55 0 0 0-1.93 2.852 5.2 5.2 0 0 0-.073 2.543c.173.765.507 1.494.977 2.123a5 5 0 0 0 1.805 1.395c.742.358 1.57.556 2.399.544h3.202c.581 0 1.125.259 1.472.728.37.445.507 1.062.333 1.617l-2.003 7.408h-3.499a14.25 14.25 0 0 1-6.64-1.568 15.2 15.2 0 0 1-5.02-4.173 14.71 14.71 0 0 1-2.56-12.704l.21-.753a14.5 14.5 0 0 1 2.016-4.42 14.9 14.9 0 0 1 3.252-3.444 15.3 15.3 0 0 1 4.18-2.222 14.8 14.8 0 0 1 4.81-.766m5.703 30.087 9.892-36.864A4.25 4.25 0 0 1 32.065.852 4.07 4.07 0 0 1 34.625 0h10.46c2.3-.025 4.587.518 6.627 1.58 1.954 1 3.673 2.42 5.02 4.16a15.3 15.3 0 0 1 2.758 5.926 14.1 14.1 0 0 1-.247 6.852l-.198.753a15.7 15.7 0 0 1-2.003 4.42 14.6 14.6 0 0 1-3.227 3.47 14.9 14.9 0 0 1-4.18 2.246 14.8 14.8 0 0 1-4.81.803h-9.051l1.805-6.753a4.2 4.2 0 0 1 1.496-2.223 4.04 4.04 0 0 1 2.548-.852h2.893a5.266 5.266 0 0 0 5.107-3.95c.235-.802.26-1.654.074-2.47a5.6 5.6 0 0 0-.977-2.123 5.2 5.2 0 0 0-1.73-1.469 5.2 5.2 0 0 0-2.474-.58h-5.589L31.62 36.95a4.18 4.18 0 0 1-1.496 2.198A3.98 3.98 0 0 1 27.65 40zm62.388-19.68.148-.555a.72.72 0 0 0-.124-.667.76.76 0 0 0-.63-.284h-16.26c-.655 0-1.31-.148-1.904-.444a4.1 4.1 0 0 1-1.397-1.173 4.2 4.2 0 0 1-.755-1.679 4.7 4.7 0 0 1 0-1.938l1.002-3.803h22.022c1.286 0 2.572.297 3.71.902a8.65 8.65 0 0 1 2.83 2.345 8.4 8.4 0 0 1 1.546 3.321 8.2 8.2 0 0 1-.074 3.877l-3.944 14.679a6.78 6.78 0 0 1-6.615 5.05h-16.26a8.6 8.6 0 0 1-3.945-.927 8.5 8.5 0 0 1-2.955-2.469 9.2 9.2 0 0 1-1.607-3.494A8.36 8.36 0 0 1 57.938 29l.21-.754a7.7 7.7 0 0 1 1.237-2.592 9 9 0 0 1 1.93-2.05 8.7 8.7 0 0 1 5.304-1.802H80.22l-1.001 3.704a4.25 4.25 0 0 1-1.497 2.197 3.98 3.98 0 0 1-2.473.852H69.24a1.04 1.04 0 0 0-1.1.84c-.112.333-.037.703.197.975.198.296.544.481.903.494h9.892c.346 0 .68-.1.952-.297.26-.185.445-.469.495-.79l.099-.407zm29.125-10.407a14.26 14.26 0 0 1 6.677 1.58 14.62 14.62 0 0 1 7.753 10.112 14.2 14.2 0 0 1-.223 6.84l-2.473 9.394a2.88 2.88 0 0 1-1.076 1.605 3.14 3.14 0 0 1-1.83.593h-5.403a1.77 1.77 0 0 1-1.509-.729 1.77 1.77 0 0 1-.296-1.617l3.004-11.346a4.9 4.9 0 0 0 .075-2.469 5.65 5.65 0 0 0-.977-2.123 5.3 5.3 0 0 0-1.806-1.494 5.2 5.2 0 0 0-2.398-.58h-5.602l-4.847 18.136a2.88 2.88 0 0 1-1.076 1.604 3.1 3.1 0 0 1-1.879.593h-5.354a1.8 1.8 0 0 1-1.484-.728 1.74 1.74 0 0 1-.321-1.618L98.55 9.852zm29.463 9.481a2.7 2.7 0 0 0-.853 1.235l-2.3 8.481a1.42 1.42 0 0 0 .248 1.235c.284.395.741.63 1.236.605h20.773l-1.607 5.938a4.25 4.25 0 0 1-1.496 2.198 3.98 3.98 0 0 1-2.473.852h-18.931a8.24 8.24 0 0 1-3.71-.877 8.2 8.2 0 0 1-2.819-2.346 8.65 8.65 0 0 1-1.558-3.345 7.9 7.9 0 0 1 .136-3.827l3.042-11.334a11.6 11.6 0 0 1 4.031-6.05 11.5 11.5 0 0 1 3.128-1.653c1.187-.42 2.449-.63 3.71-.63h13.354c1.298 0 2.572.296 3.709.901a8.65 8.65 0 0 1 2.832 2.346 7.85 7.85 0 0 1 1.521 3.345 8.3 8.3 0 0 1-.099 3.852l-.903 3.395a6.4 6.4 0 0 1-2.473 3.618 6.66 6.66 0 0 1-4.13 1.382H140.96l1.002-3.703a3.96 3.96 0 0 1 1.471-2.198 4.04 4.04 0 0 1 2.547-.852h6.109c.519.025.989-.32 1.1-.84l.198-.752a1.12 1.12 0 0 0-.198-1 1.11 1.11 0 0 0-.902-.445h-9.311c-.495 0-.965.16-1.348.47m19.028 20.605 10.053-37.717A2.75 2.75 0 0 1 171.785.63a2.95 2.95 0 0 1 1.879-.63h5.354a1.87 1.87 0 0 1 1.521.729c.383.444.495 1.062.322 1.617l-7.506 27.827a12.1 12.1 0 0 1-1.768 4 13.2 13.2 0 0 1-2.906 3.074 13.6 13.6 0 0 1-3.709 1.988c-1.373.494-2.832.74-4.291.728M190 4.543c.025 2.136-1.706 3.889-3.845 3.914h-.112a3.89 3.89 0 0 1-3.895-3.89A3.89 3.89 0 0 1 186.043.68 3.866 3.866 0 0 1 190 4.457zm-6.961 0a3.006 3.006 0 0 0 2.918 3.086h.099a2.95 2.95 0 0 0 2.955-2.975v-.086c.111-1.642-1.15-3.062-2.794-3.173s-3.067 1.148-3.178 2.79v.383m2.436 2h-.903V2.703a7.6 7.6 0 0 1 1.496-.11c.458-.038.928.061 1.336.271.247.21.395.518.383.852a1 1 0 0 1-.804.901c.396.148.668.519.705.938.049.334.136.655.284.963h-.964a3.6 3.6 0 0 1-.309-.938c-.074-.42-.309-.617-.804-.617h-.42zm0-2.186h.42c.495 0 .903-.172.903-.567s-.26-.593-.829-.593a1.7 1.7 0 0 0-.494 0z"/></g></svg>
